build/svg/cmd/lc_dsbinsertcontent.svg

<?xml version="1.0" encoding="UTF-8" standalone="no"?>
<svg
   xmlns:dc="http://purl.org/dc/elements/1.1/"
   xmlns:cc="http://creativecommons.org/ns#"
   xmlns:rdf="http://www.w3.org/1999/02/22-rdf-syntax-ns#"
   xmlns:svg="http://www.w3.org/2000/svg"
   xmlns="http://www.w3.org/2000/svg"
   xmlns:sodipodi="http://sodipodi.sourceforge.net/DTD/sodipodi-0.dtd"
   xmlns:inkscape="http://www.inkscape.org/namespaces/inkscape"
   viewBox="0 0 24 24"
   version="1.1"
   id="svg6"
   sodipodi:docname="lc_dsbinsertcontent.svg"
   inkscape:version="0.92.5 (2060ec1f9f, 2020-04-08)"
   inkscape:export-filename="/home/jupiter007/Libreoffice yaru theme fullcolor/build/cmd/lc_dsbinsertcontent.png"
   inkscape:export-xdpi="96"
   inkscape:export-ydpi="96">
  <metadata
     id="metadata12">
    <rdf:RDF>
      <cc:Work
         rdf:about="">
        <dc:format>image/svg+xml</dc:format>
        <dc:type
           rdf:resource="http://purl.org/dc/dcmitype/StillImage" />
      </cc:Work>
    </rdf:RDF>
  </metadata>
  <defs
     id="defs10" />
  <sodipodi:namedview
     pagecolor="#ffffff"
     bordercolor="#666666"
     borderopacity="1"
     objecttolerance="10"
     gridtolerance="10"
     guidetolerance="10"
     inkscape:pageopacity="0"
     inkscape:pageshadow="2"
     inkscape:window-width="1920"
     inkscape:window-height="1011"
     id="namedview8"
     showgrid="true"
     inkscape:zoom="27.812867"
     inkscape:cx="12.133112"
     inkscape:cy="6.2829646"
     inkscape:window-x="0"
     inkscape:window-y="32"
     inkscape:window-maximized="1"
     inkscape:current-layer="svg6">
    <inkscape:grid
       type="xygrid"
       id="grid848" />
  </sodipodi:namedview>
  <path
     d="m13 18v3h5v-3z"
     fill="#762572"
     id="path4" />
  <path
     style="fill:#f2cbf8;fill-opacity:1"
     id="path819"
     d="m 12,4.0000002 c -4.418278,0 -8,0.8954258 -8,2 V 10 18 c 0,1.1046 3.5817219,2 8,2 4.418278,0 8,-0.8954 8,-2 V 10 6.0000002 c 0,-1.1045742 -3.581722,-2 -8,-2 z"
     inkscape:connector-curvature="0"
     sodipodi:nodetypes="sscssscss" />
  <path
     inkscape:connector-curvature="0"
     d="m 12,4.0000002 c -4.418278,0 -8,0.8954258 -8,2 V 10 18 c 0,1.1046 3.5817219,2 8,2 4.418278,0 8,-0.8954 8,-2 V 10 6.0000002 c 0,-1.1045742 -3.581722,-2 -8,-2 z m 0,1 c 3.865993,0 7,0.4477153 7,1 0,0.5522847 -3.134007,1 -7,1 -3.865993,0 -7,-0.4477153 -7,-1 0,-0.5522847 3.134007,-1 7,-1 z m -7,1.9375 c 1.3529559,0.6249199 3.958076,1.0625 7,1.0625 3.041924,0 5.647043,-0.4375801 7,-1.0625 V 10 c 0,0.5523 -3.134007,1 -7,1 C 8.134007,11 5,10.5523 5,10 V 9.0625002 Z M 5,10.9375 c 1.3529559,0.624921 3.958076,1.062501 7,1.062501 3.041924,0 5.647043,-0.43758 7,-1.062501 V 14 c 0,0.5523 -3.134007,1 -7,1 -3.865993,0 -7,-0.4477 -7,-1 z m 0,4 C 6.3529559,15.562421 8.958076,16 12,16 c 3.041924,0 5.647043,-0.437579 7,-1.0625 V 18 c 0,0.5523 -3.134007,1 -7,1 -3.865993,0 -7,-0.4477 -7,-1 z"
     id="path2"
     style="fill:#8e03a3;fill-opacity:1" />
  <path
     style="fill:#000000;fill-opacity:1;stroke:#000000;opacity:0.6;stroke-width:2;stroke-miterlimit:4;stroke-dasharray:none;stroke-linejoin:round"
     d="M 11 16 L 11 23 L 14 23 L 14 22 L 12 22 L 12 17 L 14 17 L 14 16 L 11 16 z M 17 16 L 17 17 L 19 17 L 19 22 L 17 22 L 17 23 L 20 23 L 20 16 L 17 16 z M 13 18 L 13 21 L 18 21 L 18 18 L 13 18 z "
     id="path860" />
  <path
     d="m 13,18 v 3 h 5 v -3 z"
     id="path4-3"
     inkscape:connector-curvature="0"
     style="fill:#d85eca;fill-opacity:1" />
  <path
     style="fill:#d85eca;stroke:none;stroke-width:1px;stroke-linecap:butt;stroke-linejoin:miter;stroke-opacity:1;fill-opacity:1"
     d="m 17,16 h 3 v 7 h -3 v -1 h 2 v -5 h -2 z"
     id="path850"
     inkscape:connector-curvature="0" />
  <path
     inkscape:connector-curvature="0"
     id="path858"
     d="m 14,16 h -3 v 7 h 3 v -1 h -2 v -5 h 2 z"
     style="fill:#d85eca;fill-opacity:1;stroke:none;stroke-width:1px;stroke-linecap:butt;stroke-linejoin:miter;stroke-opacity:1" />
</svg>

<svg xmlns="http://www.w3.org/2000/svg" viewBox="0 0 24 24"><path d="M13 18v3h5v-3z" fill="#762572"/><path d="M12 4c-4.418 0-8 .895-8 2v12c0 1.105 3.582 2 8 2s8-.895 8-2V6c0-1.105-3.582-2-8-2z" fill="#f2cbf8"/><path d="M12 4c-4.418 0-8 .895-8 2v12c0 1.105 3.582 2 8 2s8-.895 8-2V6c0-1.105-3.582-2-8-2zm0 1c3.866 0 7 .448 7 1s-3.134 1-7 1-7-.448-7-1 3.134-1 7-1zM5 6.938C6.353 7.562 8.958 8 12 8s5.647-.438 7-1.062V10c0 .552-3.134 1-7 1s-7-.448-7-1v-.937zm0 4C6.353 11.562 8.958 12 12 12s5.647-.438 7-1.063V14c0 .552-3.134 1-7 1s-7-.448-7-1zm0 4C6.353 15.562 8.958 16 12 16s5.647-.438 7-1.063V18c0 .552-3.134 1-7 1s-7-.448-7-1z" fill="#8e03a3"/><path d="M11 16v7h3v-1h-2v-5h2v-1h-3zm6 0v1h2v5h-2v1h3v-7h-3zm-4 2v3h5v-3h-5z" stroke="#000" opacity=".6" stroke-width="2" stroke-linejoin="round"/><path d="M13 18v3h5v-3z" fill="#d85eca"/><path d="M17 16h3v7h-3v-1h2v-5h-2zM14 16h-3v7h3v-1h-2v-5h2z" fill="#d85eca"/></svg>
